X:16
T:Washington Square Park
C:Angus Lyon & Ruaridh Campbell
S:Mads Kjøller-Henningsen
N:A great memory of a great trip to Copenhagen June 2017, merci Mads
R:three-two hornpipe
M:3/2
L:1/8
K:Emaj
FG EB, (3B,CE | FE EB, (3B,CE | AG BG FE | FF/G/ Ec B/G/F/E/ |
FG EB, (3B,CE | FE EB, (3B,CE | cB BG FE |1 E2- Ec B/G/F/E/ :|2 E2- EB B/c/e/f/ |:
ge fe B/c/e/f/ | be fe B/c/e/f/ | =ge e=d dB | A=d BA B/c/e/f/ |
ge fe B/c/e/f/ | be fe B/c/e/f/ | =ge e=d dB |1 A4 B/c/e/f/ :|2 A4 B/G/F/E/ |]
